X:1
T:Voi che del puro fiume
T:Lodovico Agostini
T:Voi che del puro fiume
T:Canzone Seconda parte
C:Lodovico Agostini
%%score [ 1 2 3 4 ]
L:1/8
Q:1/4=90
M:4/4
K:C
V:1 treble nm="Soprano" snm="S"
V:2 alto1 nm="Alto" snm="A"
V:3 alto nm="Tenor" snm="T"
V:4 bass3 nm="Bass" snm="B"
V:1
 z8 |[K:Bb] F4 z2 B2- | B2 A2 G2 B2- | B2 A2 B4 | B4 B4 | B2 c2 d4 | f4 d2 B2 | B2 c2 d4 | %8
w: |Voi, Voi|_ che del pu-|* ro fiu-|me, Nin-|fe gen- til,|Nin- fe gen-|til ha- bi-|
 e2 e4 d2 | c6 =B2 | c2 A3 A B2 | d2 e3 d/c/ d2 | e4 z2 B2 | c2 c2 c2 c2 | c4 d2 dc | %15
w: ta- tri- ce|Se- te|Al vi- vo al- te-|ro lu- * * *|me, Che|le cam- pa- gne|ren- de va- *|
 BA G2 F2 c2- | c4 c4 |[M:3/2][Q:1/4=135] d4 d4 d4 | c8 B4 | A6 A2 A4 | A4 A2 B4 B2 | %21
w: * * * gh'e lie-|* te,|Il bion- do|crin tra-|he- te, Fuor|di ver- de al- ga|
[M:4/4][Q:1/4=90] B2 AG A4 | B4 z2 d2 | c4 d2 B2 | A4 B2 B2 | B2 c2 d4 | c4 =B4 | c2 c2 e3 e | %28
w: cin- * * *|to, Ve-|ni- te, Ve-|ni- te, Ve-|ni- te et voi|o De-|e, O rea- di|
 d2 c2 c4 | c2 B2 A3 A | A2 B2 c4 | d4 c2 B2 | B2 A2 B4 | z2 d2 e2 c2 | B2 B2 B4 | B2 c4 c2 | %36
w: e Na- pe-|e, A ce- le-|brar il di|d'o- ro di-|pin- * to,|Ve- ni- te|con ca- ne-|stri, Ple- ni|
 B2 B4 A2 | B4 c4- | c2 B2 A4 | B8 | A8 |] %41
w: di fior et|voi Fau-|* ni Sil-|ve-|stri.|
V:2
 z8 |[K:Bb][K:treble] B,4 F4- | F4 D4 | F4 F4 | G8 | F4 F4 | D2 E2 F2 F2 | G2 A2 B4 | B2 B4 B2 | %9
w: |Voi che|_ del|pu- ro|fiu-|me, Nin-|fe gen- til, Nin-|fe gen- til|ha- bi- ta-|
 A2 G2 G4 | G2 F4 G2 | B2 A2 B4 | B4 z2 G2 | _A2 A2 A2 G2 | A4 B2 BA | GFEC F2 _A2 | G4 A4 | %17
w: tri- ce Se-|te Al vi- vo al-|te- ro lu-|me, Che|le cam- pa- gne|ren- de va- *|* * * * * gh'e|lie- te,|
[M:3/2] B4 B4 B4 | A8 G4 | F6 F2 F4 | =E4 ^F2 G4 D2 |[M:4/4] F8 | F4 z2 B2 | A4 B2 F2 | F4 F2 F2 | %25
w: Il bion- do|crin tra-|he- te, Fuor|di ver- de al- ga|cin-|to, Ve-|ni- te, Ve-|ni- te, Ve-|
 G2 A2 B4 | G4 G4 | G2 A2 B3 B | B2 A2 G4 | A2 G2 ^F3 F | ^F2 G2 A4 | B2 F2 F4 | F4 F4 | %33
w: ni- te et voi|o De-|e, O rea- di|e Na- pe-|e, A ce- le-|brar il di|d'o- ro di-|pin- to,|
 z2 B2 B2 A2 | G2 G2 F4 | G2 _A4 A2 | G4 F3 E | D2 E2 C2 _A2- | A2 G2 F4 | F8 | F8 |] %41
w: Ve- ni- te|con ca- ne-|stri, Ple- ni|di fior _|_ et voi Fau-|* ni Sil-|ve-|stri.|
V:3
 z8 |[K:Bb][K:treble-8] d8 | c4 B4 | c4 d4 | e8 | d4 B4 | B2 c2 d2 d2- | dd f2 f4 | g2 g4 f2 | %9
w: |Voi|che del|pu- ro|fiu-|me, Nin-|fe gen- til, Nin-|* fe gen- til|ha- bi- ta-|
 f2 e2 d4 | c2 c4 e2 | f2 e2 f4 | g4 z2 e2 | e2 e2 f2 =e2 | f3 f f2 f2 | B3 cde f2- | %16
w: tri- ce Se-|te Al vi- vo al-|te- ro lu-|me, Che|le cam- pa- gne|ren- de va- gh'e|lie- * * * *|
 f=e/d/ e2 f4 |[M:3/2] f4 f4 f4 | f8 d4 | d6 d2 d4 | ^c4 d2 d4 B2 |[M:4/4] c8 | B4 z2 f2 | %23
w: * * * * te,|Il bion- do|crin tra-|he- te, Fuor|di ver- de al- ga|cin-|to, Ve-|
 f4 B2 d2 | c4 d2 d2 | d2 f2 f4 | e4 d4 | =e2 f2 g3 g | f2 f2 =e4 | f2 d2 d3 d | d2 d2 f4- | %31
w: ni- te, Ve-|ni- te, Ve-|ni- te et voi|o De-|e, O rea- di|e Na- pe-|e, A ce- le-|brar il di|
 f2 B2 c2 d2 | c4 B4 | z2 f2 g2 f2 | d2 e2 d4 | e2 e4 e2 | e4 d2 c2 | B4 e4- | e2 e2 c4 | _d8 | %40
w: _ d'o- ro di-|pin- to,|Ve- ni- te|con ca- ne-|stri, Ple- ni|di fior et|voi Fau-|* ni Sil-|ve-|
 c8 |] %41
w: stri.|
V:4
 z8 |[K:Bb][K:bass] z4 B,,4 | F,4 G,4 | F,4 B,,4 | E,8 | B,,8- | B,,4 B,4 | G,2 F,2 B,4 | %8
w: |Voi|che del|pu- ro|fiu-|me,|_ Nin-|fe gen- til|
 E,2 E,4 B,,2 | F,2 C,2 G,4 | C,2 F,4 E,2 | B,2 C2 B,4 | E,4 z2 E,2 | _A,2 A,2 F,2 C,2 | F,4 B,,4 | %15
w: ha- bi- ta-|tri- ce Se-|te Al vi- vo al-|te- ro lu-|me, Che|le cam- pa- gne|ren- de|
 E,F,G,A, B,2 F,2 | C4 F,4 |[M:3/2] B,4 B,4 B,4 | F,8 G,4 | D,6 D,2 D,4 | A,4 D,2 G,4 G,2 | %21
w: va- * * * * gh'e|lie- te,|Il bion- do|crin tra-|he- te, Fuor|di ver- de al- ga|
[M:4/4] F,8 | B,,8 | z4 B,,4 | F,4 B,,2 B,2 | G,2 F,2 B,4 | C4 G,4 | C,2 F,2 E,3 E, | %28
w: cin-|to,|Ve-|ni- to, Ve-|ni- te et voi|o De-|e, O rea- di|
 B,,2 F,2 C,4 | F,2 G,2 D,3 D, | D,2 G,2 F,4 | B,,4 A,,2 B,,2 | F,4 B,,4 | z2 B,2 E,2 F,2 | %34
w: e Na- pe-|e, A ce- le-|brar il di|d'o- ro di-|pin- to,|Ve- ni- te|
 G,2 E,2 B,4 | E,2 _A,4 A,2 | E,4 B,2 F,2 | G,4 _A,4- | A,2 E,2 F,4 | B,,8 | F,8 |] %41
w: con ca- ne-|stri, Ple- ni|di fior et|voi Fau-|* ni Sil-|ve-|stri.|

